X:1
T:Out of the Cold
T:Out of the Cold
T:(From The Elder Scrolls V: Skyrim)
T:Arr. B. McMonagle
C:Jeremy Soule
%%score ( 1 2 ) ( 3 4 )
L:1/8
Q:3/8=52
M:3/8
K:Eb
V:1 treble-8 nm="Lute" snm="Lt."
V:2 treble-8 
V:3 treble-8 nm="Lute" snm="Lt."
V:4 treble-8 
V:1
"^\n"!f! BEc | BAG | FGA | G2 E | BEc | BAG | FGA | GB/E/G/B/ | e2 e | dcB | AB/A/G/4A/4A/ | FAG | %12
 FB,/D/F/A/ | cBA | GAG/F/ | E3 | GEB | (3A/G/A/GA | FGc | B2 (3c/B/A/ | GAF | EFG | D2 E | F3 | %24
 AGF | EDE | FG/A/B/c/ | B2 A | GAF | E2 E | E3 | E3 | A>AF/E/ | E3 | F>GF/E/ | D2 B, | AG/A/F/E/ | %37
 E2 C | EG/F/E | E3 | A>GF/E/ | E3 | F>GF/E/ | D B,2 | AG/A/F/E/ | E2 C | EG/F/E | E3 | EB,E | %49
 FDA | GBA | GA/G/F | EDE | FDF | B,3 | E2 E | EFG | EDE | F2 F | GAF | EDE | FED | E2 G | BAG | %64
 A2 E | FEF | E2 B, | ECD | EAG | F2 G | F2 G | AB(3c/B/A/ | ABA | BAG | AGF | BG/B/G | AFF | %77
 E2 E | E3 | A>AF/D/ | E3 | F>GF/E/ | D B,2 | AG/A/F/E/ | E2 C | EG/F/E | E3 | A>AF/E/ | D3 | %89
 F>GF/E/ | D B,2 | AG/A/F/E/ | E2 C | EG/F/E | E3 | BEc | BAG | FGA | G2 E | BEc | BAA | FGA | %102
 GB/E/G/B/ | e2 e | e3 :| %105
V:2
 !^!E,3- | E,3 | !^!E,3- | E,3 | !^!E,3- | E,3 | !^!E,3- | E,3 | !^!E,3- | E,3 | !^!E,3- | E,3 | %12
 !^!E,3- | E,3 | !^!E,3- | E,3 | !^!E,3- | E,3 | x3 | x3 | x3 | x3 | x3 | x3 | x3 | x3 | x3 | x3 | %28
 x3 | x3 | x3 | x3 | !^!E,3- | E,3 | !^!E,3- | E,3 | !^!E,3- | E,3 | !^!E,3- | E,3 | !^!E,3- | %41
 E,3 | !^!E,3- | E,3 | !^!E,3- | E,3 | !^!E,3- | E,3 | x3 | x3 | x3 | x3 | x3 | x3 | x3 | x3 | x3 | %57
 x3 | x3 | x3 | x3 | x3 | x3 | x3 | x3 | x3 | x3 | x3 | x3 | x3 | x3 | x3 | x3 | x3 | x3 | x3 | %76
 x3 | !^!E,3- | E,3 | !^!E,3- | E,3 | !^!E,3- | E,3 | !^!E,3- | E,3 | !^!E,3- | E,3 | !^!E,3- | %88
 E,3 | !^!E,3- | E,3 | !^!E,3- | E,3 | !^!E,3- | E,3 | !^!E,3- | E,3 | !^!E,3- | E,3 | !^!E,3- | %100
 E,3 | !^!E,3- | E,3 | !^!E,3 | !^!E,3 :| %105
V:3
!mf! e3- | e3 | e3- | e2 B | e3- | e3 | e3 | z [B,B][B,B] | E3- | E2 B | e3- | e2 B | e3- | e2 B | %14
 e3- | e3 | B,3 | E2 B, | B3 | E3 | E2 B, | E3 | B,2 B, | B,!mp!F/G/A/B/ | A/G/F/G/A/F/ | %25
 E/F/F/E/F/D/ | E/C/ B,2- | B,F/E/D/E/ | E>B,C/E/ | EFE |!mf! E2 E | E3- | EB,/C/B/E/ | %33
 eA/B,/A/B,/ | [B,e]B,/F/G/E/ | dB,/A/B/B,/ | B3 | edc | E>B,F/B/ | e2 F | eB,/C/B/E/ | %41
 eA/B,/A/B,/ | eB,/F/G/E/ | dB,/A/B/B,/ | B3 | edc | E>B,F/B/ | e2 F | E3 | B,3- | B,EB,- | B,2 A | %52
 GAG- | GD/E/F/E/ | z2 C | EE/D/C | B2 G/A/ | GAA |!mp! G,/A,/B,/C/A,/G,/ | A,B,/[A,B,]/B, | %60
 EB,E- | EB,/F/E/B,/- | B,E/F/E/D/ | B,B,/D/E/F/ | CB,/D/E/C/- | CB,/E/C/B,/ | D/E/F/D/E/F/ | %67
 B,D/E/C/D/ | B,>DE/G/ | FF/E/D/C/ | B,2 B,/D/ | EEE | B,3 | G,G,/A,/B,/C/ | DB,B, | E3 | E3- | %77
!mf! EB,/C/B/E/ | eA/B,/A/B,/ | e3 | eB,/A/B/B,/ | B3 | [Ee]dc | EB,/F/B | e2 F | eB,/C/e/E/ | %86
 eA/B,/A/B,/ | [Ee]B,/F/G/E/ | dB,/A/B/B,/ | B3 | [Ee]dc | E>B,F/B/ | e2 F | e3- | e3 | e3- | %96
 e2 B | e3- | e3 | e3 | e[B,B][B,B] | E3- | E3 | E3 | !^!E,3 :| %105
V:4
 x3 | x3 | x3 | x3 | x3 | x3 | x3 | x3 | x3 | x3 | x3 | x3 | x3 | x3 | x3 | x3 | x3 | x3 | B,2 B, | %19
 x3 | x3 | x3 | x3 | x3 | x3 | x3 | x3 | x3 | x3 | x3 | x3 | x3 | x3 | x3 | [B,E]3 | x3 | x3 | E3 | %38
 x3 | x3 | x3 | x3 | B,3 | x3 | x3 | E3 | x3 | x3 | B,3 | x3 | x3 | x3 | x3 | x3 | x3 | x3 | x3 | %57
 x3 | x3 | x3 | x3 | x3 | x3 | x3 | x3 | x3 | x3 | x3 | x3 | x3 | x3 | x3 | x3 | x3 | x3 | x3 | %76
 x3 | x3 | x3 | B,B,/F/G/E/ | x3 | x3 | x3 | x3 | x3 | x3 | x3 | x3 | x3 | x3 | x3 | x3 | x3 | x3 | %94
 x3 | x3 | x3 | x3 | x3 | x3 | x3 | x3 | x3 | x3 | x3 :| %105

